X:1
T:Haverthwaite House Cottage
C:Colin Cotter
M:6/8
K:G
GFG E2 E|GFG D2 D|GFG E2 G|D2 G C2 G|B,2 D G2 B|A2 F G2 d|
e2 d c2 d|c2 B A2 G :||:c2 G C2 d|e2 d c2 G|B2 G B2 c|d2 B A2 g|c2 G c2 d|
e2 d c2 d|g2 d g2 b|c2 b A2 g :||:B^df Bdf|ceg z3|B^df Bdf|
Ace z3|B^df Bdf|ceg z d|g2 d g2 B|c2 B A2 g :||: B b ~G3|
c2 d z2 e|A2 a ~F3|B2 c z2 d|G2 G ~e3|A2 B z2 c|B^dB eBf|gfe dBA :|
